X:1
T:Hönsafötter
C:Ale Möller
O:Skåne
D:Känd genom Ale Möller och Filarfolket (1983) och CDn Vintervals
M:2/4
L:1/8
K:D
|: FD DD | FD DD | ED EF | A2 A2 | FD DD | FD DD | ED EF | D2 D2 :|
w:Hön-sa-föt-ter gu-le-röt-ter ma-ger som en tra-na. Den som kys-ser tö-ser-na han har en fest-lig va-na
|: dd cc | B<B A>G | FD EF | A2 A2 | 
w:Du är född i Kö-pen-hamn å jag är född i Skå-ne. 
dd cc | B<B A>G | FD EF | D2 D2 :|
w:Får jag va' din lil-le man så får du bli min ko-ne

